assets/img/tripadvisor.svg

<?xml version="1.0" encoding="UTF-8" standalone="yes"?>
<svg xmlns="http://www.w3.org/2000/svg" xmlns:xlink="http://www.w3.org/1999/xlink" width="16px" height="16px" viewBox="0 0 16 16" version="1.1" fill="#000000">
  <g id="surface395345">
    <path style=" stroke:none;fill-rule:nonzero;fill:#000000;fill-opacity:1;" d="M 8 3 C 6.097656 3 4.371094 3.765625 3.109375 5 L 0 5 C 0.347656 5.402344 0.742188 6.027344 0.914062 6.492188 C 0.351562 7.179688 0 8.046875 0 9 C 0 11.203125 1.796875 13 4 13 C 5.308594 13 6.460938 12.359375 7.191406 11.382812 L 8 13 L 8.808594 11.382812 C 9.539062 12.359375 10.691406 13 12 13 C 14.203125 13 16 11.203125 16 9 C 16 8.058594 15.65625 7.203125 15.109375 6.515625 C 15.355469 5.929688 15.613281 5.515625 16 5 L 12.886719 5 C 11.625 3.765625 9.902344 3 8 3 Z M 8 4 C 9.265625 4 10.433594 4.394531 11.402344 5.0625 C 9.480469 5.351562 8 7.003906 8 9 C 8 7 6.515625 5.351562 4.59375 5.0625 C 5.5625 4.390625 6.734375 4 8 4 Z M 4 6 C 5.664062 6 7 7.335938 7 9 C 7 10.664062 5.664062 12 4 12 C 2.335938 12 1 10.664062 1 9 C 1 7.335938 2.335938 6 4 6 Z M 12 6 C 13.664062 6 15 7.335938 15 9 C 15 10.664062 13.664062 12 12 12 C 10.335938 12 9 10.664062 9 9 C 9 7.335938 10.335938 6 12 6 Z M 4 8 C 3.449219 8 3 8.449219 3 9 C 3 9.550781 3.449219 10 4 10 C 4.550781 10 5 9.550781 5 9 C 5 8.449219 4.550781 8 4 8 Z M 12 8 C 11.449219 8 11 8.449219 11 9 C 11 9.550781 11.449219 10 12 10 C 12.550781 10 13 9.550781 13 9 C 13 8.449219 12.550781 8 12 8 Z M 12 8 "/>
  </g>
</svg>

<svg xmlns="http://www.w3.org/2000/svg" width="16" height="16"><path d="M8 3a6.977 6.977 0 00-4.89 2H0c.348.402.742 1.027.914 1.492A3.95 3.95 0 000 9c0 2.203 1.797 4 4 4a3.98 3.98 0 003.191-1.617L8 13l.809-1.617A3.98 3.98 0 0012 13c2.203 0 4-1.797 4-4 0-.941-.344-1.797-.89-2.484.245-.586.503-1 .89-1.516h-3.113A6.967 6.967 0 008 3zm0 1c1.266 0 2.434.395 3.402 1.063C9.48 5.351 8 7.002 8 9c0-2-1.484-3.648-3.406-3.938A5.95 5.95 0 018 4zM4 6c1.664 0 3 1.336 3 3s-1.336 3-3 3a2.99 2.99 0 01-3-3c0-1.664 1.336-3 3-3zm8 0c1.664 0 3 1.336 3 3s-1.336 3-3 3a2.99 2.99 0 01-3-3c0-1.664 1.336-3 3-3zM4 8c-.55 0-1 .45-1 1s.45 1 1 1 1-.45 1-1-.45-1-1-1zm8 0c-.55 0-1 .45-1 1s.45 1 1 1 1-.45 1-1-.45-1-1-1zm0 0"/></svg>
